ix/unlimited_broken.svg

<svg viewBox="0 0 24 24" fill="none" xmlns="http://www.w3.org/2000/svg" height="1em" width="1em">
  <path d="M20.0003 15.77C19.2703 16.26 18.4003 16.5499 17.4603 16.5499C15.9603 16.5499 14.6503 15.8099 13.8203 14.6799" stroke="#292D32" stroke-width="1.5" stroke-linecap="round" stroke-linejoin="round"/>
  <path d="M10.1802 9.31995C9.36024 8.18995 8.05025 7.44995 6.54025 7.44995C4.03025 7.44995 1.99023 9.48994 1.99023 11.9999C1.99023 14.5099 4.03025 16.5499 6.54025 16.5499C8.23025 16.5499 9.80026 15.66 10.6703 14.21L12.0002 11.9999L13.3203 9.78992C14.1903 8.33992 15.7603 7.44995 17.4503 7.44995C19.9603 7.44995 22.0002 9.48994 22.0002 11.9999" stroke="#292D32" stroke-width="1.5" stroke-linecap="round" stroke-linejoin="round"/>
</svg>

<svg viewBox="0 0 24 24" fill="none" xmlns="http://www.w3.org/2000/svg" height="1em" width="1em">
  <path d="M20 15.77c-.73.49-1.6.78-2.54.78-1.5 0-2.81-.74-3.64-1.87m-3.64-5.36a4.474 4.474 0 0 0-3.64-1.87c-2.51 0-4.55 2.04-4.55 4.55s2.04 4.55 4.55 4.55c1.69 0 3.26-.89 4.13-2.34L12 12l1.32-2.21a4.821 4.821 0 0 1 4.13-2.34C19.96 7.45 22 9.49 22 12" stroke="#292D32" stroke-width="1.5" stroke-linecap="round" stroke-linejoin="round"/>
</svg>
